public/images/flags/CH.svg

<svg width="21" height="15" viewBox="0 0 21 15" fill="none" xmlns="http://www.w3.org/2000/svg">
<path d="M2 0H19C19.5304 0 20.0391 0.210714 20.4142 0.585787C20.7893 0.96086 21 1.46957 21 2V13C21 13.5304 20.7893 14.0391 20.4142 14.4142C20.0391 14.7893 19.5304 15 19 15H2C1.46957 15 0.960858 14.7893 0.585785 14.4142C0.210712 14.0391 0 13.5304 0 13V2C0 1.46957 0.210712 0.96086 0.585785 0.585787C0.960858 0.210714 1.46957 0 2 0Z" fill="#E25950"/>
<path d="M15 9H12V12H9V9H6V6H9V3H12V6H15V9Z" fill="white"/>
</svg>

<svg width="21" height="15" fill="none" xmlns="http://www.w3.org/2000/svg"><path d="M2 0h17a2 2 0 0 1 2 2v11a2 2 0 0 1-2 2H2a2 2 0 0 1-2-2V2a2 2 0 0 1 2-2z" fill="#E25950"/><path d="M15 9h-3v3H9V9H6V6h3V3h3v3h3v3z" fill="#fff"/></svg>
